u/stations/toyo/symbols/TR/TR06.svg

<?xml version="1.0" encoding="UTF-8"?>
<svg xmlns="http://www.w3.org/2000/svg" xmlns:xlink="http://www.w3.org/1999/xlink" width="75" height="75" viewBox="0 0 75 75">
<defs>
<clipPath id="clip-0">
<path clip-rule="nonzero" d="M 2 1 L 19 1 L 19 22.75 L 2 22.75 Z M 2 1 "/>
</clipPath>
<clipPath id="clip-1">
<path clip-rule="nonzero" d="M 20 1 L 37 1 L 37 22.75 L 20 22.75 Z M 20 1 "/>
</clipPath>
<clipPath id="clip-2">
<rect x="0" y="0" width="39" height="23"/>
</clipPath>
<g id="source-6" clip-path="url(#clip-2)">
<g clip-path="url(#clip-0)">
<path fill-rule="nonzero" fill="rgb(0%, 0%, 0%)" fill-opacity="1" d="M 8.53125 4.449219 L 2.757812 4.449219 L 2.757812 1.089844 L 18.632812 1.089844 L 18.632812 4.449219 L 12.765625 4.449219 L 12.765625 22.324219 L 8.53125 22.324219 Z M 8.53125 4.449219 "/>
</g>
<g clip-path="url(#clip-1)">
<path fill-rule="nonzero" fill="rgb(0%, 0%, 0%)" fill-opacity="1" d="M 20.847656 1.089844 C 25.273438 1.089844 25.273438 1.089844 25.273438 1.089844 C 29.699219 1.089844 34.992188 0.992188 34.992188 6.917969 C 34.992188 9.386719 33.355469 11.363281 30.757812 11.757812 C 31.914062 11.855469 32.585938 13.042969 32.972656 13.929688 C 36.242188 22.324219 36.242188 22.324219 36.242188 22.324219 C 31.625 22.324219 31.625 22.324219 31.625 22.324219 C 29.21875 15.609375 29.21875 15.609375 29.21875 15.609375 C 28.546875 14.128906 28.0625 13.4375 26.332031 13.4375 C 24.984375 13.4375 24.984375 13.4375 24.984375 13.4375 C 24.984375 22.324219 24.984375 22.324219 24.984375 22.324219 C 20.847656 22.324219 20.847656 22.324219 20.847656 22.324219 Z M 24.984375 10.078125 C 26.332031 10.078125 26.332031 10.078125 26.332031 10.078125 C 28.351562 10.078125 30.660156 9.78125 30.660156 7.214844 C 30.660156 4.746094 28.351562 4.449219 26.332031 4.449219 C 24.984375 4.449219 24.984375 4.449219 24.984375 4.449219 Z M 24.984375 10.078125 "/>
</g>
</g>
<clipPath id="clip-3">
<path clip-rule="nonzero" d="M 1 0.847656 L 20 0.847656 L 20 26.851562 L 1 26.851562 Z M 1 0.847656 "/>
</clipPath>
<clipPath id="clip-4">
<path clip-rule="nonzero" d="M 22 0.847656 L 40 0.847656 L 40 26.851562 L 22 26.851562 Z M 22 0.847656 "/>
</clipPath>
<clipPath id="clip-5">
<rect x="0" y="0" width="41" height="27"/>
</clipPath>
<g id="source-9" clip-path="url(#clip-5)">
<g clip-path="url(#clip-3)">
<path fill-rule="nonzero" fill="rgb(0%, 0%, 0%)" fill-opacity="1" d="M 1.882812 13.921875 C 1.882812 7.621094 3.789062 0.847656 10.597656 0.847656 C 17.941406 0.847656 19.382812 8.085938 19.382812 13.921875 C 19.382812 19.753906 17.871094 26.851562 10.597656 26.851562 C 2.855469 26.851562 1.882812 19.179688 1.882812 13.921875 M 14.34375 13.921875 C 14.34375 10.679688 14.34375 4.59375 10.597656 4.59375 C 6.921875 4.59375 6.921875 10.679688 6.921875 13.921875 C 6.921875 17.09375 6.890625 23.105469 10.597656 23.105469 C 14.375 23.105469 14.34375 17.09375 14.34375 13.921875 Z M 14.34375 13.921875 "/>
</g>
<g clip-path="url(#clip-4)">
<path fill-rule="nonzero" fill="rgb(0%, 0%, 0%)" fill-opacity="1" d="M 37.207031 5.820312 C 35.875 5.242188 34.503906 4.808594 32.816406 4.808594 C 28.453125 4.808594 26.980469 8.839844 26.835938 12.589844 L 26.90625 12.660156 C 28.101562 10.933594 29.644531 10.140625 31.769531 10.140625 C 36.527344 10.140625 39.117188 13.164062 39.117188 17.8125 C 39.117188 23.25 36.453125 26.851562 30.761719 26.851562 C 23.773438 26.851562 22.226562 21.050781 22.226562 15.148438 C 22.226562 8.339844 24.421875 0.847656 32.5625 0.847656 C 34.402344 0.847656 36.128906 1.136719 37.855469 1.75 L 37.207031 5.820312 M 27.269531 18.640625 C 27.269531 21.011719 28.277344 23.105469 30.761719 23.105469 C 33.105469 23.105469 34.074219 20.835938 34.074219 18.601562 C 34.074219 16.152344 33.066406 13.886719 30.652344 13.886719 C 28.203125 13.886719 27.269531 16.117188 27.269531 18.640625 Z M 27.269531 18.640625 "/>
</g>
</g>
<clipPath id="clip-6">
<rect x="0" y="0" width="75" height="75"/>
</clipPath>
<g id="source-11" clip-path="url(#clip-6)">
<path fill-rule="nonzero" fill="rgb(55.291748%, 80.39093%, 41.96167%)" fill-opacity="1" d="M 75 37.5 C 75 16.789062 58.210938 0 37.5 0 C 16.789062 0 0 16.789062 0 37.5 C 0 58.210938 16.789062 75 37.5 75 C 58.210938 75 75 58.210938 75 37.5 Z M 75 37.5 "/>
<path fill-rule="nonzero" fill="rgb(100%, 100%, 100%)" fill-opacity="1" d="M 70.601562 37.5 C 70.601562 19.21875 55.78125 4.398438 37.5 4.398438 C 19.21875 4.398438 4.402344 19.21875 4.402344 37.5 C 4.402344 55.78125 19.21875 70.601562 37.5 70.601562 C 55.78125 70.601562 70.601562 55.78125 70.601562 37.5 Z M 70.601562 37.5 "/>
<use xlink:href="#source-6" transform="matrix(1, 0, 0, 1, 18, 10)"/>
<use xlink:href="#source-9" transform="matrix(1, 0, 0, 1, 17, 38)"/>
</g>
</defs>
<use xlink:href="#source-11"/>
</svg>

<svg xmlns="http://www.w3.org/2000/svg" xmlns:xlink="http://www.w3.org/1999/xlink" width="75" height="75"><defs><clipPath id="b"><path d="M2 1h17v21.75H2Zm0 0"/></clipPath><clipPath id="c"><path d="M20 1h17v21.75H20Zm0 0"/></clipPath><clipPath id="a"><path d="M0 0h39v23H0z"/></clipPath><clipPath id="e"><path d="M1 .848h19v26.004H1Zm0 0"/></clipPath><clipPath id="f"><path d="M22 .848h18v26.004H22Zm0 0"/></clipPath><clipPath id="d"><path d="M0 0h41v27H0z"/></clipPath><clipPath id="g"><path d="M0 0h75v75H0z"/></clipPath><g id="h" clip-path="url(#a)"><g clip-path="url(#b)"><path d="M8.531 4.45H2.758V1.09h15.875v3.36h-5.867v17.874H8.53Zm0 0"/></g><g clip-path="url(#c)"><path d="M20.848 1.09h4.425c4.426 0 9.72-.098 9.72 5.828 0 2.469-1.638 4.445-4.235 4.84 1.156.097 1.828 1.285 2.215 2.172l3.27 8.394h-4.618l-2.406-6.715c-.672-1.48-1.157-2.171-2.887-2.171h-1.348v8.886h-4.136Zm4.136 8.988h1.348c2.02 0 4.328-.297 4.328-2.863 0-2.469-2.308-2.766-4.328-2.766h-1.348Zm0 0"/></g></g><g id="i" clip-path="url(#d)"><g clip-path="url(#e)"><path d="M1.883 13.922c0-6.3 1.906-13.074 8.715-13.074 7.343 0 8.785 7.238 8.785 13.074 0 5.832-1.512 12.93-8.785 12.93-7.743 0-8.715-7.672-8.715-12.93m12.46 0c0-3.242 0-9.328-3.745-9.328-3.676 0-3.676 6.086-3.676 9.328 0 3.172-.031 9.183 3.676 9.183 3.777 0 3.746-6.011 3.746-9.183Zm0 0"/></g><g clip-path="url(#f)"><path d="M37.207 5.82c-1.332-.578-2.703-1.011-4.39-1.011-4.364 0-5.837 4.03-5.981 7.78l.07.071c1.196-1.726 2.739-2.52 4.864-2.52 4.757 0 7.347 3.024 7.347 7.672 0 5.438-2.664 9.04-8.355 9.04-6.989 0-8.535-5.801-8.535-11.704 0-6.808 2.195-14.3 10.336-14.3 1.84 0 3.566.289 5.292.902l-.648 4.07M27.27 18.64c0 2.372 1.007 4.465 3.492 4.465 2.343 0 3.312-2.27 3.312-4.503 0-2.45-1.008-4.715-3.422-4.715-2.449 0-3.382 2.23-3.382 4.754Zm0 0"/></g></g><g id="j" clip-path="url(#g)"><path fill="#8DCD6B" d="M75 37.5C75 16.79 58.21 0 37.5 0S0 16.79 0 37.5 16.79 75 37.5 75 75 58.21 75 37.5Zm0 0"/><path fill="#FFF" d="M70.602 37.5c0-18.281-14.82-33.102-33.102-33.102-18.281 0-33.098 14.82-33.098 33.102 0 18.281 14.817 33.102 33.098 33.102S70.602 55.782 70.602 37.5Zm0 0"/><use xlink:href="#h" transform="translate(18 10)"/><use xlink:href="#i" transform="translate(17 38)"/></g></defs><use xlink:href="#j"/></svg>
